X: 1
T: Salt Spring by John Reischman
R: reel
M: 4/4
L: 1/8
K: Amaj
e2 e>e fe2f-|fe c/B/A c2 c/B/A/c/|B2 B>B cB2c-|cB A<G F3A|
B2 B>B cB2c-|cB A<G F3E|F2 A>A BA F/E/D| E4-EA/B/ c/B/A/G/ ]|
|:F2G2 A2c2|F2G2 A4|F2G2 A2c2|1 cB3-BA/B/ c/B/A/G/:|2 cB3- B2 A/B/c/d/||